X:1
T:Fragments of Memories
T:Fragments of Memories
T:Nobuo Uematsu
C:Nobuo Uematsu
%%score 1 2 3 4
L:1/8
M:3/4
K:C
V:1 treble nm="Violin" snm="Vln."
V:2 treble nm="Violin" snm="Vln."
V:3 alto nm="Viola" snm="Vla."
V:4 bass nm="Violoncello" snm="Vlc."
V:1
!mp! (C4 DC) | B,2 G4 | (G4 AG) | ^F2 c4 | e2 c2 A2 | c3 A GF | E2 c4 |!mf! z2 (c2 d2) | (e4 g2) | %9
 (d4 G2) | (c4 e2) | (B4 G2) | A4 A2 | (A2 B2 c2) | G6- | G2 (c2 d2) | (e4 g2) | (d4 g2) | %18
 (a2 b2 c'2) | (b4 g2) | (a4 a2) | a2 d'2 c'2 | b6 | ^g6 | (c'4 a2) | (a2 b2 c'2) | g6 | e6 | %28
 (f2 d2 e2 | f4) (a2 | g6- | g6) | (a4 f2) | (f2 g2 a2) |!>(! (g2 a2 b2)!>)! |!mp! c'6 | %36
 (a2 d2 f2) | (e4 d2) | c6- | c6 | z6 | z4 (D2 | A3 B AG | ^F2) (c2 d2) | (e4 g2) | (d4 G2) | %46
 (c4 e2) | (B4 G2) | (A4 A2) | (A2 B2 c2) | G6 | (g2 c2 d2) | (e4 g2) | (d4 g2) | (a2 b2 c'2) | %55
 (b4 g2) | a4 a2 | (a2 d'2 c'2) | b6 | ^g6 | (c'4 a2) | (a2 b2 c'2) | (g6 | e6) | (f2 d2 e2) | %65
 (f4 a2) | g6- | g6 | (a4 f2) |!>(! (f2 g2 a2)!>)! | (g2 a2 b2 |!p! c'6) | (a2 d2 f2) | (e4 d2 | %74
 c6- | c6- | c6 | (c2) B2 c2) | A6- | A6- | A6 | (c2 B2 c2) | A6- | A6- | A6 | (d2 c2 A2) | %86
"_poco a poco accel." B6- | B6- | B6- | (B2 A2 G2) | A6- | A6 | G6- | G6 | %94
[K:G][Q:3/4=60] !^!G2 z2 !^!G2 | (!>!F2 d4) | !^!d2 z2 !^!d2 | (^c2 g4) | !^!e2 z4 | !^!c2 z4 | %100
 !^!d2 !^!G!^!G !^!G2 | !^!G2 !^!G2 !^!G2 |"_staccato" z2 .d2 .g2 | z2 .d2 .f2 | z2 .d2 .g2 | %105
 z2 .d2 .f2 | z2 .c2 .g2 | (g2 f2 e2) | d6- | d2 G2 A2 | B4 d2 | A4 d2 | e2 f2 g2 | f4 d2 | e4 e2 | %115
 e2 a2 g2 | f6 | ^d6 | z .B .e.g .b.B | e2 z4 | z .B .d.g .b.B | d2 z4 | z .E .A.c .e2 | %123
 z .a .f.g .a2 | z .a .a.g .g.d | .d.B!<(! (Bd) (df)!<)! |!f! (e4 c2) | (c2 d2 e2) | (d2 e2 f2) | %129
 g6 | (e2 A2 c2) | (B4 A2) |!mp! G6- | G6- | G6- |!mf! Gd d2 d2 |!mp! d6- | d6- | d6- | %139
!mf! d2 (c2 B2) | (g4 e2) | (e2 f2 g2) | (d6 | B6) | (c2 A2 B2) | (c4 e2) | d6- | d6 | (e4 c2) | %149
 (c2 d2 e2) | (d2 e2 f2) | g6 | (e2 A2 c2) | (B4 A2) | G6- | G6 | (e4 c2) | (c2 d2 e2) | %158
 (d2 e2 f2) | g6 | (e4 A2) | c6 | (B6 | A6) | G6- | G6 | G6- | G6- | G2"^pizz." g2 z2 |] %169
V:2
!mp! (C4 DC) | B,2 C2 D2 | C6- | C2 G2 ^F2 | F6 | A3 F ED | C2 E4 | z6 |!p! z2 !tenuto!G4 | %9
!p! z2 !tenuto!G4 |!p! z2 !tenuto!A4 |!p! z2 !tenuto!E4 | z2 (F2 E2 | D6- | D2 C4) | (B,2 G4) | %16
 c6 | (G2 A2 B2) | (c2 d2 e2) | (d2 c2 B2) | (c4 e2) | (d2 ^f2 d2) | d6 | (d2 c2 B2) | (EF EF E2) | %25
 z2 A4 | E6 | (G2 A2 B2) | (A2 F2 G2 | A4) c2 | (BG dc GB) | (cB AB AG) | (A3 G A2) | (A2 G2 A2) | %34
!>(! (B2 c2 d2)!>)! |!mp! _e6 | z2 z2 (c2 | B4) z2 |"^detache"!p! EG cG cG | cG cG cG | z G cG cG | %41
 z G cE Fc | FD FD FD | z C A,C B,D | z G CG CG | z D GD EF | z E AE AE | GE B,E GE | z C GC FC | %49
 FC GC AC | z C DC DC | (G2 C2 D2) | z G CG CG | B,4 B2 | z E AE AE | z D BD GD | z C GF CF | %57
 dA ^GA de | dB de dc | (B2 c2 d2) | e6 | (c2 d2 e2) | B6 | (B2 A2 G2) | (A2 F2 G2) | (A4 c2) | %66
 (GA Bc Gc | de dc ec) | (A3 G A2) |!>(! D2 E2 F2!>)! | (c3 d e2 |!p! _e6) | (F2 A2 d2) | B4 (B2- | %74
 B2 A2 G2 | A2 E2 D2) | E6 | (A2 G2 A2) | (G2 F2 E2) | (C2 D2 E2) | (F6 | F6) | (G2 F2 E2) | %83
 (C2 D2 E2) | F6- | F6 |"_poco a poco accel." GG EE GG | GG EE GG | GG EE GG | GG EE GG | %90
 GG FF EE | FF EE DD | EE DD CC | (B,2 C2 D2) |[K:G] !^!E2 z2 !^!E2 | (!>!D2 F4) | !^!G2 z2 !^!G2 | %97
 (G2 ^c4) | !^!c2 z4 | !^!A2 z4 | !^!G2 z4 | z6 |"_staccato" z2 .B2 .d2 | z2 .A2 .d2 | z2 .B2 .d2 | %105
 z2 .A2 .d2 | z2 .G2 .c2 | (G2 A2 B2) | G6 | G4 z2 | z2 .B,2 .B,2 | z2 .A,2 .A,2 | z2 .C2 .B,2 | %113
 z2 .B,2 .B,2 | z2 .C2 .C2 | z2 .^C2 .C2 | z2 .D2 .C2 | .B,2 z4 | z2 .G2 .G2 | .B.A .G2 z2 | %120
 z .G .B.d .g.G | .A.G F2 D2 | z .C .E.A .c2 | z .f .d.e .f2 | z .c .c.B .B.F | .F.D (DF) (FD) | %126
!mp! z2 (EF G2) | z E (EF GE) | (BG) (GE) (GB) | _BG E^C _B,G, | z2 (EF G2) | z2 DE F2 | %132
 (B,C DC B,C | DE =FE DE | DC B,C B,C | B,6) | (B,C DC B,C | DE =FE DE | DC B,C B,C | %139
 B,2) (C2 ^D2) | (E4 G2) | (B,2 ^D2 E2) | (F4 G2) | (F2- FE FD) | (E2 C2 D2) | (E4 G2) | (G4 F2) | %147
 (=F4 GF) | E6 | z4 (EF) | (G2 c2 B2) | _B6 | z2 EF G2 | z2 DE F2 | z2 B,C D2 | (=F4 GF) | E4 E2 | %157
 G2 F2 (EF) | (FG) (Gc) (cB) | _B6 | (CD CD C2) | (C2 D2 E2) | (F4 =F2) | (E4 _E2) | (D^C ED C2) | %165
 (CB, D^C =C2) | B,6- | B,6- | B,2"^pizz." B2 z2 |] %169
V:3
!mp! A,6 | A,6 | G,6 | ^F,6 | A,6 | (CD C2 B,2) | G,6 | z6 |!p!!p! z2 !tenuto!E4 | %9
!p!!p! z2 !tenuto!D4 |!p!!p! z2 !tenuto!E4 |!p!!p! z2 !tenuto!B,4 | z2 C4- | C2 (B,2 A,2) | G,6 | %15
 (B,2 C2 D2) | (E4 C2) | B,6 | C3 (C A2) | G6 | (F4 c2) | A2 (A4 | G6) | (F2 E2 D2) | (CD CD C2) | %25
 z2 E4 | (B,C B,C B,2) | (B,2 C2 D2) | A,6 | (CB, CD EF) | E4- ED | (ED CD CB,) | (F3 E F2) | %33
 (F2 E2 F2) |!>(! (G2 A2 B2)!>)! |!mp! ^F6 | z6 | z4 (F2 |!p! E6- | E6) | (C6 | A,6) | (F3 G FE | %43
 D6) | (C6 | B,6) | (A,6 | G,6) | F,6 | C6 | G,6 | (B,2 C2 D2) | C6 | z (G, A,2 B,2) | (C2 D2 E2- | %55
 E2 D4) | (G2 F4) | (A,2 ^G,2 A,2) | B,6 | (^G2 A2 B2) | E6 |"^detache" CA, CA, CA, | B,E GE GE | %63
 BG BG BG | AF AF AF | z (A, DA, CD) | (EF GA EA | Bc BA cA) | (F3 E F2) |!>(! (FC GC AC)!>)! | %70
 (ED EF ED) |!p! ^FG Fc c2 | (FE FE DC) | B,4 G2 | (E,6- | E,2 F,2 G,2) | (B,2 A,2 G,2) | %77
 A,2 (E4- | E2 D2 C2 | E,2 F,2 G,2) | (G,2 F,2) E,C, | D,6 | (E2 D2 C2) | (E,2 F,2 G,2) | C6- | %85
 C6 |"_poco a poco accel." EE G,G, EE | EE B,B, EE | EE G,G, EE | EE B,B, EE | EE DD CC | %91
 DD CC B,B, | CC B,B, A,A, | (G,2 A,2 B,2) |[K:G] !^!C2 z2 !^!C2 | !>!C2 z4 | !^!B,2 z2 !^!B,2 | %97
 (B,2 _B,2) z2 | (BA GA GE) | (GE DE DC) | !^!B,2 z4 | z6 |"_staccato""_staccato" z2 .G2 .B2 | %103
 z2 .F2 .A2 | z2 .G2 .B2 | z2 .F2 .B2 | z2 .E2 .G2 | (E2 F2 G2) | (G3 F EF | D4) z2 | z2 (G2 F2) | %111
 (E4 D2) | (G2 A2 B2) | (B4 F2) | (G4 G2) | (G4 B2) | A6 |!<(! (F2 ^E2 F2)!<)! |!f! (G4 E2) | %119
 (E2 F2 G2) | (D6 | B,6) | (C2 A,2 B,2) | (C4 E2) | D6- | D2 (C2 D2) |!mp! z2 (CD E2) | %127
 z F, (F,G, A,F,) | (DE) (EB,) (EG) | ^C6 | z2 (CD E2) | z2 B,C D2 | (G,A, B,A, G,A, | B,C DC B,C | %134
 B,A, G,A, G,A, | G,6) | (G,A, B,A, G,A, | B,C DC B,C | B,A, G,A, G,A, | G,2) (E,2 F,2) | %140
 z2 B,2 B,2 | z2 B,2 B,2 | z2 B,2 B,2 | z2 D2 D2 | z2 C2 B,2 | (A,B,) C2 E2 | z2 B,2 B,2 | %147
 (B,2 C2 D2) | z2 B,2 C2 | (E2 D2 C2) | (B,2 G2 F2) | _D6 | z2 CD E2 | z2 B,C D2 | z2 G,A, B,2 | %155
 (D4 ED) | z2 B,2 CB, | E2 D2 C2 | B,2 G2 F2 | _D6 | A,B, A,B, A,2 | A,2 B,2 C2 | D4 _D2 | C4 B,2 | %164
 B,^A, CB, A,2 | A,^G, B,A, G,2 | G,6- | G,6- | G,2"^pizz." E2 z2 |] %169
V:4
!mp! F,6 | F,6 | E,6 | _E,6 | D,6 | D,6 | C,6 | z6 | (C6 | B,6) | (A,6 | G,6) | F,6 | F,6 | E,6 | %15
 (G,,2 A,,2 B,,2) | C,6- | (C,4 B,,2) | (A,,2 E,2 A,2) | (G,4 G,,2) | (F,,2 C,2 F,2) | (^F,4 D,2) | %22
 (G,,2 D,2 G,2) | (^G,4 E,2) | (A,,4 E,2) | A,6 | (G,,4 E,2) | G,6 | F,6- | F,6 | (C,4 B,,2) | %31
 (A,,4 G,,2) | (F,,4 E,2) | (D,2 E,2 F,2) |!>(! (E,2 F,2 G,2)!>)! |!mp! A,6 | (F,,2 A,,2 _A,,2 | %37
 G,,6) |!mp! (C,,4 G,2 | D2 C3 B,) | (A,3 B, A,G, | F,4 D,2) | (D,6 | G,,6) | (C,6 | B,,6) | %46
 (A,,6 | G,,6) | C,6 | (F,2 E,2 D,2 | E,4 C,2 | G,,6) | (C,6 | B,,6) | (A,,6 | G,,6) | (F,,6 | %57
 ^F,,6) | (G,,6 | ^G,,6) | (A,,4 E,2 | A,6) | (G,,4 D,2 | G,6) | (F,,6 | A,,6) | (C,4 B,,2) | %67
 (A,,4 G,,2) | (F,,2 F,2 E,2) |!>(! (D,2 E,2 F,2)!>)! | (E,2 F,2 G,2 |!p! A,6) | (D,6 | E,6) | %74
 A,,6- | A,,6 | G,,6- | G,,6 | F,,6- | F,,2 z2 C,2 | C,6 | D,C, D,A,, D,D,,- | D,,6- | D,,4 A,,2 | %84
 (E,2 D,2 C,2) | D,E, F,A,, B,,C, |"_poco a poco accel." (E,,4 F,,2) | (G,,4 A,,2) | (B,,4 C,2) | %89
 (D,4 E,2) | F,,6- | F,,6 | G,,6- | G,,6 |[K:G] !^!C,2 z2 !^!C,2 | !>!C,2 z4 | !^!B,,2 z2 !^!B,,2 | %97
 (B,,2 _B,,2) z2 | !^!A,,2 z4 | !^!D,2 z4 | !^!G,,2 z4 | z2 (G,2 A,2) | (B,4 D2) | A,4 D,2 | %104
 G,4 B,2 | F,4 D,2 | E,4 E,2 | (E,2 F,2 G,2) | D,6 | D,,2 E,,2 F,,2 | .G,,2 z4 | .F,,2 z4 | %112
 .E,,2 z4 | .D,,2 z4 | .C,2 .E,2 .E,2 | .^C,2 .E,2 .E,2 | .D,,2 .D,2 .C,2 | .B,,2 .A,,2 .F,,2 | %118
 .E,,2 .E,2 .E,2 | .G,.F, .E,.B,, D,2 | D,2 B,,2 D,2 | F,E, D,2 B,,2 | A,,2 E,2 E,2 | D,2 E,2 F,2 | %124
 G,,2 G,2 G,2 | E,2 (E,2 D,2) | C,,2 (C,2 B,,2) | (A,,2 B,,2 C,2) | B,,2 C,2 D,2 | E,6 | C,2 z4 | %131
 D,2 z4 | G,,6- | G,,6- | G,,6 | z E,, E,,2 F,,2 | G,,6- | G,,6- | G,,6- | G,,G,, (G,,2 F,,2) | %140
 E,,2 E,2 E,2 | G,,2 E,2 E,2 | B,,2 D,2 D,2 | F,,2 B,,2 B,,2 | A,,2 E,2 E,2 | C,2 E,2 E,2 | %146
 G,,2 D,2 D,2 | (G,,2 A,,2 B,,2) | C,2 G,2 G,2 | (C,2 B,,2 C,2) | (B,,2 C,2 B,,2) | %151
 z2 G,,A,, _B,,2 | A,,2 z2 A,,2 | D,2 z2 D,2 | G,,2 D,2 D,2 | (G,,2 A,,2 B,,2) | C,2 G,2 G,2 | %157
 (C,2 B,,2 C,2) | (B,,2 C,2 B,,2) | _D,6 | A,,6 | (A,,2 B,,2 C,2) | (D,4 _D,2) | (C,4 B,,2) | %164
 (B,,4 _B,,2) | (A,,4 _A,,2) | G,,6- | G,,6 |!ff! !>!!^!G,,2"^pizz." G,2 z2 |] %169

